X:1
T:I'm Never To Marry
M:3/4
L:1/4
K:G
 D| G B(3G3.99999962500005/11.9999985000002G3.99999962500005/11.9999985000002E3.99999962500005/11.9999985000002G3.99999962500005/11.9999985000002E3.99999962500005/11.9999985000002D3.99999962500005/11.9999985000002|\
 F A2-| A zB/2-A/2| G B d| c- d2-| d z d/2d/2| d g(3d3.99999962500005/11.9999985000002d3.99999962500005/11.9999985000002B3.99999962500005/11.9999985000002d3.99999962500005/11.9999985000002B3.99999962500005/11.9999985000002D3.99999962500005/11.9999985000002|\
 B d2-| d z B/2G/2|E/2-D/2 B(3G3.99999962500005/11.9999985000002G3.99999962500005/11.9999985000002F3.99999962500005/11.9999985000002G3.99999962500005/11.9999985000002F3.99999962500005/11.9999985000002A3.99999962500005/11.9999985000002|\
 G3-| G z||
